packages/icons/src/components/Logo/assets/dark/elastic-search.svg

<svg width="20" height="20" viewBox="0 0 20 20" fill="none" xmlns="http://www.w3.org/2000/svg">
<g>
<path d="M14.6016 7H9.375C9.39844 7.125 9.44922 7.25 9.47656 7.35156C9.65234 7.95312 9.75 8.57812 9.80078 9.22656C9.82422 9.47656 9.82422 9.75 9.82422 10C9.82422 10.25 9.82422 10.5234 9.80078 10.7734C9.75 11.4219 9.65234 12.0469 9.47656 12.6484C9.45313 12.7734 9.40234 12.8984 9.375 13H14.6016C16.25 13 17.5781 11.6484 17.5781 10C17.5781 8.35156 16.25 7 14.6016 7Z" fill="#00A9E5"/>
<path d="M9.80078 10.7734C9.82422 10.5234 9.82422 10.25 9.82422 10C9.82422 9.75 9.82422 9.47656 9.80078 9.22656C9.75 8.57812 9.65234 7.95312 9.47656 7.35156C9.45312 7.22656 9.40234 7.10156 9.375 7H1.30078C1 7.94922 0.851562 8.94922 0.851562 10C0.851562 11.0508 1 12.0508 1.30078 13H9.375C9.39844 12.875 9.44922 12.75 9.47656 12.6484C9.64844 12.0508 9.75 11.4258 9.80078 10.7734Z" fill="white"/>
<path d="M15.5 14H9C8.80078 14.4492 8.57422 14.875 8.32422 15.2734C7.94922 15.8984 7.5 16.4492 7 16.9727C6.82422 17.1484 6.64844 17.2969 6.47656 17.4727C6.125 17.7969 5.72656 18.0742 5.32812 18.3477C6.90234 19.3984 8.80469 19.9961 10.8281 19.9961C14.3047 19.9961 17.3516 18.2227 19.1523 15.5469C18.2266 14.6016 16.9258 14 15.5 14Z" fill="#00BFB3"/>
<path d="M8.32422 15.2734C8.57422 14.875 8.80078 14.4492 9 14H1.67578C2.44922 15.7734 3.72656 17.3008 5.35156 18.3516C5.75 18.0781 6.125 17.8008 6.5 17.4766C6.67578 17.3281 6.85156 17.1523 7.02344 16.9766C7.5 16.4766 7.94922 15.8984 8.32422 15.2734Z" fill="#019B8F"/>
<path d="M7 3.02344C6.82422 2.84766 6.64844 2.69922 6.47656 2.52344C6.125 2.19922 5.72656 1.92188 5.32812 1.64844C3.72656 2.69922 2.45312 4.22266 1.65234 6H8.97656C8.77734 5.55078 8.55078 5.125 8.30078 4.72656C7.94922 4.10156 7.5 3.52344 7 3.02344Z" fill="#F9B110"/>
<path d="M10.8242 0C8.80078 0 6.89844 0.601563 5.32422 1.64844C5.72266 1.92188 6.09766 2.19922 6.47266 2.52344C6.64844 2.67188 6.82422 2.84766 6.99609 3.02344C7.5 3.55078 7.94922 4.10156 8.32422 4.72656C8.57422 5.125 8.80078 5.55078 9 6H15.5C16.9258 6 18.2266 5.39844 19.1484 4.44922C17.3516 1.77344 14.3008 0 10.8242 0Z" fill="#FED10A"/>
</g>
<defs>
<clipPath id="clip0_378_432">
<rect width="20" height="20" fill="white"/>
</clipPath>
</defs>
</svg>

<svg xmlns="http://www.w3.org/2000/svg" width="20" height="20" fill="none" viewBox="0 0 20 20">
    <path fill="#00a9e5" d="M14.602 7H9.375c.023.125.074.25.102.352A9.3 9.3 0 0 1 9.824 10c0 .25 0 .523-.023.773a9.2 9.2 0 0 1-.324 1.875c-.024.125-.075.25-.102.352h5.227c1.648 0 2.976-1.352 2.976-3s-1.328-3-2.976-3"/>
    <path fill="#fff" d="M9.8 10.773c.024-.25.024-.523.024-.773s0-.523-.023-.773a9.2 9.2 0 0 0-.324-1.875c-.024-.125-.075-.25-.102-.352H1.301Q.85 8.425.85 10t.45 3h8.074c.023-.125.074-.25.102-.352a9.4 9.4 0 0 0 .324-1.875"/>
    <path fill="#00bfb3" d="M15.5 14H9q-.3.675-.676 1.273A9.6 9.6 0 0 1 7 16.973c-.176.175-.352.324-.523.5-.352.324-.75.601-1.149.875a9.9 9.9 0 0 0 5.5 1.648c3.477 0 6.524-1.773 8.324-4.45A5.12 5.12 0 0 0 15.5 14"/>
    <path fill="#019b8f" d="M8.324 15.273A10 10 0 0 0 9 14H1.676a9.9 9.9 0 0 0 3.676 4.352 13 13 0 0 0 1.148-.875c.176-.149.352-.325.523-.5a9.8 9.8 0 0 0 1.301-1.704"/>
    <path fill="#f9b110" d="M7 3.023c-.176-.175-.352-.324-.523-.5-.352-.324-.75-.601-1.149-.875C3.727 2.7 2.453 4.223 1.652 6h7.325q-.3-.676-.676-1.273A8 8 0 0 0 7 3.023"/>
    <path fill="#fed10a" d="M10.824 0a9.9 9.9 0 0 0-5.5 1.648c.399.274.774.551 1.149.875.175.149.351.325.523.5a9.7 9.7 0 0 1 1.328 1.704Q8.7 5.325 9 6h6.5a5.1 5.1 0 0 0 3.648-1.55A10 10 0 0 0 10.824 0"/>
</svg>
